X:19
T:Polonäs
T:ur Kumlins notsamling (nr 19)
B:Kumlins notsamling, nr 19
B:http://www.smus.se/earkiv/fmk/browselarge.php?lang=sw&katalogid=Ma+4&bildnr=00016
O:Närke
R:Slängpolska
Z:Nils Liberg
M:3/4
L:1/16
K:Dm
d^cde fefg a2c2 | d^cde fefg a4 | b2a2 g2f2 e2d2 | d2^cd edc=B A4 |
d^cde fefg a2c2 | d^cde fefg a4 | b2a2 g2f2 e2d2 | ^cdec d4 D4 ::
f2g2 a8 | f2ef g2f2 e2d2 | ^c2e2 A8 | d2^cd e2c2 B2A2 | F2EF A2F2 E2D2 | A,2^C2 E2A2 F2D2 | E2D^C D8 :|

